btlcenter/img/icon_factory.svg

<svg fill="none" height="50" viewBox="0 0 50 50" width="50" xmlns="http://www.w3.org/2000/svg" xmlns:xlink="http://www.w3.org/1999/xlink"><clipPath id="a"><path d="m0 0h50v50h-50z"/></clipPath><g clip-path="url(#a)" fill="#000"><path d="m49.2676 48.5352h-2.3988v-10.0672c.4793-.4215.7828-1.0386.7828-1.7256 0-1.2672-1.031-2.298-2.2981-2.298h-4.7917l-.7399-11.8385c-.0241-.3861-.3443-.6868-.731-.6868h-3.1313c-.3867 0-.7069.3007-.731.6868l-.7399 11.8385h-1.7552l-.7399-11.8385c-.0242-.3861-.3443-.6868-.731-.6868h-3.1313c-.3867 0-.7068.3007-.7309.6868l-.74 11.8385h-1.7551l-.74-11.8385c-.0241-.3861-.3442-.6868-.7309-.6868h-3.1313c-.3867 0-.7068.3007-.7309.6868l-.74 11.8385h-2.04l-.4537-20.4202c-.0088-.398-.3341-.7161-.7323-.7161h-4.6969c-.3982 0-.7235.3181-.7322.7161l-.52339 23.5515h-5.79004c-1.26719 0-2.29805 1.031-2.29805 2.2981 0 .687.30342 1.3041.78282 1.7255v6.9359h-1.616018c-.404492 0-.732422.3279-.732422.7324s.32793.7324.732422.7324h48.535178c.4045 0 .7324-.3279.7324-.7324s-.3279-.7324-.7324-.7324zm-39.68371-7.8281h-2.58858c-.40449 0-.73242.3279-.73242.7324s.32793.7324.73242.7324h2.55606l-.14141 6.3633h-5.59668v-6.3647c.0168.0004.0335.0013.05039.0013.40449 0 .73242-.3279.73242-.7324s-.32793-.7324-.73242-.7324c-.45947 0-.8332-.3739-.8332-.8332 0-.4595.37383-.8333.8332-.8333h5.75723zm27.06371-17.3231h1.7551l.6913 11.0604h-3.1377zm-7.8283 0h1.7552l.6913 11.0604h-3.1377zm-7.8282 0h1.7552l.6912 11.0604h-3.1377zm-8.4658 25.1512h-1.65l.7501-33.7623h3.2643l.4373 19.6715h-1.2865c-1.2672 0-2.2981 1.0309-2.2981 2.298 0 .687.3034 1.3041.7829 1.7256zm32.8282-10.9596h-1.5656c-.4045 0-.7324.3279-.7324.7324s.3279.7325.7324.7325h1.5656c.0169 0 .0336-.001.0504-.0013v9.496h-31.4139v-9.496c.0168.0004.0335.0013.0504.0013h26.6167c.4045 0 .7325-.328.7325-.7325s-.328-.7324-.7325-.7324h-26.6167c-.4594 0-.8333-.3738-.8333-.8332s.3739-.8332.8333-.8332h31.313c.4595 0 .8333.3737.8333.8332s-.3738.8332-.8332.8332z"/><path d="m40.6566 0c-2.2065 0-4.31.770019-5.9915 2.18105-1.2073-.90585-2.6703-1.398238-4.1853-1.398238-1.8391 0-3.5947.726078-4.8997 2.009768-.6765-.2917-1.4082-.44414-2.1457-.44414-2.1775 0-4.1187 1.30381-4.9706 3.25508-.294-.08233-.5949-.12383-.9006-.12383-1.513 0-2.8141.98388-3.2788 2.36211-.081-.00899-.1624-.01358-.2439-.01358-1.2672 0-2.2982 1.03096-2.2982 2.29808.0001.4046.328.7325.7325.7325s.7325-.3279.7325-.7324c0-.45951.3738-.83324.8333-.83324.1453 0 .2877.04112.4233.12227.2195.13135.4916.13857.7179.01934.2261-.11934.3738-.34805.3892-.60342.0642-1.05791.9393-1.88662 1.9921-1.88662.3329 0 .6615.08994.9766.26738.1973.11123.4353.12471.6442.03652.2089-.08818.365-.26806.4232-.4872.4598-1.73575 2.0336-2.94805 3.8272-2.94805.6797 0 1.353.17773 1.9472.51387.3037.17187.6868.10556.9149-.1587 1.0543-1.2207 2.5791-1.9208 4.1833-1.9208 1.3716 0 2.6903.51202 3.7132 1.44161.2854.25937.7231.25302 1.0009-.01465 1.4785-1.4251 3.4185-2.20987 5.4628-2.20987 4.3443 0 7.8786 3.53438 7.8786 7.87862s-3.5343 7.87864-7.8786 7.87864c-2.8843 0-5.5358-1.5748-6.9197-4.1099-.1845-.3381-.5995-.4754-.9493-.3143-.7346.3384-1.511.51-2.3078.51-1.6042 0-3.129-.7001-4.1833-1.9208-.2281-.2642-.6111-.3306-.9149-.1587-.5942.3362-1.2675.5139-1.9472.5139-1.2377 0-2.383-.5667-3.1421-1.5548-.1379-.1794-.3509-.28506-.5771-.28623-.0013 0-.0025 0-.0037 0-.2249 0-.4375.10343-.5763.28043-.3875.4943-.9605.7777-1.572.7777-.4045 0-.7324.3279-.7324.7324s.3279.7324.7324.7324c.7763 0 1.5146-.2594 2.1161-.7299 1.005.9696 2.3353 1.5127 3.7551 1.5127.7375 0 1.4692-.1524 2.1457-.444 1.305 1.2837 3.0607 2.0098 4.8997 2.0098.7894 0 1.5622-.1326 2.3054-.3946 1.7113 2.6734 4.6703 4.3087 7.8714 4.3087 5.152 0 9.3434-4.1915 9.3434-9.34344 0-5.15196-4.1914-9.34346-9.3434-9.34346z"/><path d="m18.7374 40.7069c-.4045 0-.7324.3279-.7324.7324v1.5657c0 .4045.3279.7324.7324.7324s.7324-.3279.7324-.7324v-1.5657c0-.4045-.3279-.7324-.7324-.7324z"/><path d="m21.8687 40.7069c-.4045 0-.7324.3279-.7324.7324v1.5657c0 .4045.3279.7324.7324.7324s.7324-.3279.7324-.7324v-1.5657c0-.4045-.3279-.7324-.7324-.7324z"/><path d="m25 40.7069c-.4045 0-.7324.3279-.7324.7324v1.5657c0 .4045.3279.7324.7324.7324s.7324-.3279.7324-.7324v-1.5657c0-.4045-.3279-.7324-.7324-.7324z"/><path d="m28.1313 40.7069c-.4045 0-.7324.3279-.7324.7324v1.5657c0 .4045.3279.7324.7324.7324s.7324-.3279.7324-.7324v-1.5657c0-.4045-.3278-.7324-.7324-.7324z"/><path d="m31.2626 40.7069c-.4045 0-.7324.3279-.7324.7324v1.5657c0 .4045.3279.7324.7324.7324s.7324-.3279.7324-.7324v-1.5657c0-.4045-.3279-.7324-.7324-.7324z"/><path d="m34.3939 40.7069c-.4045 0-.7325.3279-.7325.7324v1.5657c0 .4045.328.7324.7325.7324s.7324-.3279.7324-.7324v-1.5657c0-.4045-.3279-.7324-.7324-.7324z"/><path d="m37.5252 40.7069c-.4045 0-.7324.3279-.7324.7324v1.5657c0 .4045.3279.7324.7324.7324s.7324-.3279.7324-.7324v-1.5657c0-.4045-.3279-.7324-.7324-.7324z"/><path d="m40.6566 40.7069c-.4045 0-.7325.3279-.7325.7324v1.5657c0 .4045.328.7324.7325.7324.4044 0 .7324-.3279.7324-.7324v-1.5657c0-.4045-.328-.7324-.7324-.7324z"/></g></svg>

<svg width="50" height="50" viewBox="0 0 50 50" fill="none" xmlns="http://www.w3.org/2000/svg">
<g clip-path="url(#clip0)">
<path d="M49.2676 48.5352H46.8688V38.468C47.3481 38.0465 47.6516 37.4294 47.6516 36.7424C47.6516 35.4752 46.6206 34.4444 45.3535 34.4444H40.5618L39.8219 22.6059C39.7978 22.2198 39.4776 21.9191 39.0909 21.9191H35.9596C35.5729 21.9191 35.2527 22.2198 35.2286 22.6059L34.4887 34.4444H32.7335L31.9936 22.6059C31.9694 22.2198 31.6493 21.9191 31.2626 21.9191H28.1313C27.7446 21.9191 27.4245 22.2198 27.4004 22.6059L26.6604 34.4444H24.9053L24.1653 22.6059C24.1412 22.2198 23.8211 21.9191 23.4344 21.9191H20.3031C19.9164 21.9191 19.5963 22.2198 19.5722 22.6059L18.8322 34.4444H16.7922L16.3385 14.0242C16.3297 13.6262 16.0044 13.3081 15.6062 13.3081H10.9093C10.5111 13.3081 10.1858 13.6262 10.1771 14.0242L9.65371 37.5757H3.86367C2.59648 37.5757 1.56562 38.6067 1.56562 39.8738C1.56562 40.5608 1.86904 41.1779 2.34844 41.5993V48.5352H0.732422C0.32793 48.5352 0 48.8631 0 49.2676C0 49.6721 0.32793 50 0.732422 50H49.2676C49.6721 50 50 49.6721 50 49.2676C50 48.8631 49.6721 48.5352 49.2676 48.5352ZM9.58389 40.7071H6.99531C6.59082 40.7071 6.26289 41.035 6.26289 41.4395C6.26289 41.844 6.59082 42.1719 6.99531 42.1719H9.55137L9.40996 48.5352H3.81328V42.1705C3.83008 42.1709 3.84678 42.1718 3.86367 42.1718C4.26816 42.1718 4.59609 41.8439 4.59609 41.4394C4.59609 41.0349 4.26816 40.707 3.86367 40.707C3.4042 40.707 3.03047 40.3331 3.03047 39.8738C3.03047 39.4143 3.4043 39.0405 3.86367 39.0405H9.6209L9.58389 40.7071ZM36.6476 23.384H38.4027L39.094 34.4444H35.9563L36.6476 23.384ZM28.8193 23.384H30.5745L31.2658 34.4444H28.1281L28.8193 23.384ZM20.9911 23.384H22.7463L23.4375 34.4444H20.2998L20.9911 23.384ZM12.5253 48.5352H10.8753L11.6254 14.7729H14.8897L15.327 34.4444H14.0405C12.7733 34.4444 11.7424 35.4753 11.7424 36.7424C11.7424 37.4294 12.0458 38.0465 12.5253 38.468V48.5352ZM45.3535 37.5756H43.7879C43.3834 37.5756 43.0555 37.9035 43.0555 38.308C43.0555 38.7125 43.3834 39.0405 43.7879 39.0405H45.3535C45.3704 39.0405 45.3871 39.0395 45.4039 39.0392V48.5352H13.99V39.0392C14.0068 39.0396 14.0235 39.0405 14.0404 39.0405H40.6571C41.0616 39.0405 41.3896 38.7125 41.3896 38.308C41.3896 37.9035 41.0616 37.5756 40.6571 37.5756H14.0404C13.581 37.5756 13.2071 37.2018 13.2071 36.7424C13.2071 36.283 13.581 35.9092 14.0404 35.9092H45.3534C45.8129 35.9092 46.1867 36.2829 46.1867 36.7424C46.1867 37.2019 45.8129 37.5756 45.3535 37.5756Z" fill="black"/>
<path d="M40.6566 0C38.4501 0 36.3466 0.770019 34.6651 2.18105C33.4578 1.2752 31.9948 0.782812 30.4798 0.782812C28.6407 0.782812 26.8851 1.50889 25.5801 2.79258C24.9036 2.50088 24.1719 2.34844 23.4344 2.34844C21.2569 2.34844 19.3157 3.65225 18.4638 5.60352C18.1698 5.52119 17.8689 5.47969 17.5632 5.47969C16.0502 5.47969 14.7491 6.46357 14.2844 7.8418C14.2034 7.83281 14.122 7.82822 14.0405 7.82822C12.7733 7.82822 11.7423 8.85918 11.7423 10.1263C11.7424 10.5309 12.0703 10.8588 12.4748 10.8588C12.8793 10.8588 13.2073 10.5309 13.2073 10.1264C13.2073 9.66689 13.5811 9.29316 14.0406 9.29316C14.1859 9.29316 14.3283 9.33428 14.4639 9.41543C14.6834 9.54678 14.9555 9.554 15.1818 9.43477C15.4079 9.31543 15.5556 9.08672 15.571 8.83135C15.6352 7.77344 16.5103 6.94473 17.5631 6.94473C17.896 6.94473 18.2246 7.03467 18.5397 7.21211C18.737 7.32334 18.975 7.33682 19.1839 7.24863C19.3928 7.16045 19.5489 6.98057 19.6071 6.76143C20.0669 5.02568 21.6407 3.81338 23.4343 3.81338C24.114 3.81338 24.7873 3.99111 25.3815 4.32725C25.6852 4.49912 26.0683 4.43281 26.2964 4.16855C27.3507 2.94785 28.8755 2.24775 30.4797 2.24775C31.8513 2.24775 33.17 2.75977 34.1929 3.68936C34.4783 3.94873 34.916 3.94238 35.1938 3.67471C36.6723 2.24961 38.6123 1.46484 40.6566 1.46484C45.0009 1.46484 48.5352 4.99922 48.5352 9.34346C48.5352 13.6877 45.0009 17.2221 40.6566 17.2221C37.7723 17.2221 35.1208 15.6473 33.7369 13.1122C33.5524 12.7741 33.1374 12.6368 32.7876 12.7979C32.053 13.1363 31.2766 13.3079 30.4798 13.3079C28.8756 13.3079 27.3508 12.6078 26.2965 11.3871C26.0684 11.1229 25.6854 11.0565 25.3816 11.2284C24.7874 11.5646 24.1141 11.7423 23.4344 11.7423C22.1967 11.7423 21.0514 11.1756 20.2923 10.1875C20.1544 10.0081 19.9414 9.90244 19.7152 9.90127C19.7139 9.90127 19.7127 9.90127 19.7115 9.90127C19.4866 9.90127 19.274 10.0047 19.1352 10.1817C18.7477 10.676 18.1747 10.9594 17.5632 10.9594C17.1587 10.9594 16.8308 11.2873 16.8308 11.6918C16.8308 12.0963 17.1587 12.4242 17.5632 12.4242C18.3395 12.4242 19.0778 12.1648 19.6793 11.6943C20.6843 12.6639 22.0146 13.207 23.4344 13.207C24.1719 13.207 24.9036 13.0546 25.5801 12.763C26.8851 14.0467 28.6408 14.7728 30.4798 14.7728C31.2692 14.7728 32.042 14.6402 32.7852 14.3782C34.4965 17.0516 37.4555 18.6869 40.6566 18.6869C45.8086 18.6869 50 14.4954 50 9.34346C50 4.1915 45.8086 0 40.6566 0Z" fill="black"/>
<path d="M18.7374 40.7069C18.3329 40.7069 18.005 41.0348 18.005 41.4393V43.005C18.005 43.4095 18.3329 43.7374 18.7374 43.7374C19.1419 43.7374 19.4698 43.4095 19.4698 43.005V41.4393C19.4698 41.0348 19.1419 40.7069 18.7374 40.7069Z" fill="black"/>
<path d="M21.8687 40.7069C21.4642 40.7069 21.1363 41.0348 21.1363 41.4393V43.005C21.1363 43.4095 21.4642 43.7374 21.8687 43.7374C22.2732 43.7374 22.6011 43.4095 22.6011 43.005V41.4393C22.6011 41.0348 22.2732 40.7069 21.8687 40.7069Z" fill="black"/>
<path d="M25 40.7069C24.5955 40.7069 24.2676 41.0348 24.2676 41.4393V43.005C24.2676 43.4095 24.5955 43.7374 25 43.7374C25.4045 43.7374 25.7324 43.4095 25.7324 43.005V41.4393C25.7324 41.0348 25.4045 40.7069 25 40.7069Z" fill="black"/>
<path d="M28.1313 40.7069C27.7268 40.7069 27.3989 41.0348 27.3989 41.4393V43.005C27.3989 43.4095 27.7268 43.7374 28.1313 43.7374C28.5358 43.7374 28.8637 43.4095 28.8637 43.005V41.4393C28.8637 41.0348 28.5359 40.7069 28.1313 40.7069Z" fill="black"/>
<path d="M31.2626 40.7069C30.8581 40.7069 30.5302 41.0348 30.5302 41.4393V43.005C30.5302 43.4095 30.8581 43.7374 31.2626 43.7374C31.6671 43.7374 31.995 43.4095 31.995 43.005V41.4393C31.995 41.0348 31.6671 40.7069 31.2626 40.7069Z" fill="black"/>
<path d="M34.3939 40.7069C33.9894 40.7069 33.6614 41.0348 33.6614 41.4393V43.005C33.6614 43.4095 33.9894 43.7374 34.3939 43.7374C34.7984 43.7374 35.1263 43.4095 35.1263 43.005V41.4393C35.1263 41.0348 34.7984 40.7069 34.3939 40.7069Z" fill="black"/>
<path d="M37.5252 40.7069C37.1207 40.7069 36.7928 41.0348 36.7928 41.4393V43.005C36.7928 43.4095 37.1207 43.7374 37.5252 43.7374C37.9297 43.7374 38.2576 43.4095 38.2576 43.005V41.4393C38.2576 41.0348 37.9297 40.7069 37.5252 40.7069Z" fill="black"/>
<path d="M40.6566 40.7069C40.2521 40.7069 39.9241 41.0348 39.9241 41.4393V43.005C39.9241 43.4095 40.2521 43.7374 40.6566 43.7374C41.061 43.7374 41.389 43.4095 41.389 43.005V41.4393C41.389 41.0348 41.061 40.7069 40.6566 40.7069Z" fill="black"/>
</g>
<defs>
<clipPath id="clip0">
<rect width="50" height="50" fill="white"/>
</clipPath>
</defs>
</svg>
